img/svg/left-q.svg

<svg width="11" height="10" viewBox="0 0 11 10" fill="none" xmlns="http://www.w3.org/2000/svg">
<path d="M7.17215 0.00012207H9.70322C10.0548 0.00012207 10.3536 0.132713 10.5997 0.397819C10.8457 0.662975 10.9688 0.984924 10.9688 1.36379V4.09103C10.9688 4.46987 10.8458 4.79177 10.5997 5.05687C10.3536 5.32195 10.0547 5.45459 9.70322 5.45459H8.22679C8.05109 5.45459 7.90165 5.52091 7.7786 5.65345C7.65555 5.78592 7.59405 5.94699 7.59405 6.13648V6.36362C7.59405 6.86555 7.75886 7.29392 8.08839 7.6491C8.41795 8.00411 8.81558 8.18168 9.28144 8.18168H9.70322C9.81754 8.18168 9.91637 8.22678 9.9999 8.31668C10.0834 8.40659 10.1251 8.51316 10.1251 8.63627V9.54547C10.1251 9.66839 10.0834 9.77516 9.9999 9.86508C9.9163 9.95496 9.81756 10.0001 9.70322 10.0001H9.28141C8.82438 10.0001 8.38826 9.90406 7.97299 9.71237C7.55774 9.52065 7.19854 9.26134 6.89533 8.93461C6.59219 8.60786 6.35158 8.22089 6.17364 7.77341C5.99571 7.32596 5.90671 6.85605 5.90671 6.36365V1.36369C5.90671 0.984825 6.02976 0.662901 6.27579 0.397794C6.52182 0.132688 6.82067 0.00012207 7.17215 0.00012207Z" fill="#F6762C"/>
<path d="M0.369764 0.397697C0.615769 0.132591 0.914571 0 1.26615 0H3.79711C4.14869 0 4.44747 0.132591 4.69349 0.397697C4.9395 0.662878 5.0625 0.984802 5.0625 1.36367V4.0909C5.0625 4.46974 4.9395 4.79164 4.69349 5.05675C4.44747 5.32183 4.14866 5.45447 3.79711 5.45447H2.32069C2.14498 5.45447 1.99543 5.52079 1.87241 5.65333C1.7495 5.78587 1.68786 5.94687 1.68786 6.13635V6.3635C1.68786 6.86543 1.85267 7.2938 2.18227 7.64898C2.5118 8.00399 2.90934 8.18156 3.37524 8.18156H3.79711C3.91134 8.18156 4.01026 8.22666 4.0937 8.31656C4.1772 8.40647 4.21901 8.51303 4.21901 8.63615V9.54535C4.21901 9.66826 4.1772 9.77503 4.0937 9.86496C4.01029 9.95484 3.91136 9.99996 3.79711 9.99996H3.37524C2.91827 9.99996 2.48218 9.90394 2.06686 9.71224C1.65168 9.52052 1.29253 9.26121 0.9893 8.93449C0.686089 8.60774 0.445347 8.22066 0.267516 7.77329C0.0896153 7.32594 0.000573158 6.85593 0.000573158 6.36353V1.36357C0.0006423 0.984703 0.123575 0.662779 0.369764 0.397697Z" fill="#F6762C"/>
</svg>

<svg xmlns="http://www.w3.org/2000/svg" width="11" height="10" fill="none"><path fill="#F6762C" d="M7.172 0h2.531c.352 0 .65.133.897.398.246.265.369.587.369.966V4.09c0 .379-.123.7-.37.966a1.178 1.178 0 0 1-.896.398H8.227a.59.59 0 0 0-.448.198.684.684 0 0 0-.185.483v.228c0 .502.165.93.494 1.285.33.355.728.533 1.193.533h.422c.115 0 .213.045.297.135.083.09.125.196.125.32v.908c0 .123-.042.23-.125.32a.392.392 0 0 1-.297.135h-.422c-.457 0-.893-.096-1.308-.288a3.396 3.396 0 0 1-1.078-.777 3.694 3.694 0 0 1-.721-1.162 3.78 3.78 0 0 1-.267-1.41v-5c0-.378.123-.7.369-.965S6.82 0 7.172 0ZM.37.398C.616.133.915 0 1.266 0h2.531c.352 0 .65.133.896.398.247.265.37.587.37.966V4.09c0 .379-.123.7-.37.966a1.178 1.178 0 0 1-.896.397H2.321a.59.59 0 0 0-.449.2.685.685 0 0 0-.184.482v.228c0 .501.165.93.494 1.285.33.355.727.533 1.193.533h.422c.114 0 .213.045.297.135.083.09.125.196.125.32v.908c0 .123-.042.23-.125.32a.392.392 0 0 1-.297.135h-.422c-.457 0-.893-.096-1.308-.288a3.397 3.397 0 0 1-1.078-.778 3.692 3.692 0 0 1-.721-1.16A3.78 3.78 0 0 1 0 6.363v-5C0 .984.124.663.37.398Z"/></svg>
